X:1
T: Miss Looney's Reel
C:
R:Reel
Q: 232
K:D
M:4/4
L:1/8
|:dB|A2 FA dB AF|D2 ((3FED) FA A=c|BA FA dB AF|DF AF E2 dB|
A2 FA dB AF|D2 ((3FED) FA Af|((3gfe) fd ec dB|AB GE D2 FA|
Be ed BA Bc|dB AF DE FA|Be ed BA Bc|dB AF E2 FA|
Be ed BA Bc|dB AF DE FA|((3gfe) fd ec dB|AB GE D2:|
